img/icon-art.svg

<svg width="52" height="60" viewBox="0 0 52 60" fill="none" xmlns="http://www.w3.org/2000/svg">
<path d="M47.6203 7.86294C45.201 4.2339 41.33 1.93551 36.2493 1.08874C34.5558 0.846799 32.8622 0.72583 31.2897 0.72583C22.8219 0.72583 15.3219 4.47584 9.75737 11.492C6.12833 16.0888 3.46704 21.8952 2.01543 28.1856C0.563813 34.2339 0.563812 40.5243 1.77349 45.7259C2.8622 49.9598 6.61221 56.0082 11.9348 56.0082C13.5074 56.0082 15.9267 55.4033 18.1042 52.6211C19.0719 51.4114 19.7977 50.3227 20.4026 49.234C22.2171 46.4517 22.9429 45.484 24.5155 45.484C24.8784 45.484 25.2413 45.484 25.7251 45.6049C26.9348 41.8549 28.1445 38.3469 28.6284 37.2581C28.9913 36.2904 29.838 34.8388 30.9268 33.0243C30.8058 32.7823 30.8058 32.5404 30.6848 32.2985C30.08 30.242 30.3219 27.8226 31.4106 25.2823C32.3784 22.742 34.0719 20.6855 36.1284 19.2339C37.9429 17.9033 39.9994 17.1775 41.9348 17.1775C42.2977 17.1775 42.5397 17.2984 42.9026 17.4194C43.3865 17.6613 43.8703 18.0242 44.2332 18.5081C44.7171 19.3549 44.7171 20.3226 44.1123 21.1694C43.8703 21.6533 43.8703 21.8952 44.4752 23.4678C45.201 25.2823 46.0477 27.7017 44.959 30.8468C43.6284 34.4759 41.451 36.1694 39.9994 36.7743C39.5155 38.8307 39.1526 40.4033 38.6687 41.3711C38.5477 41.613 38.3058 42.2178 37.9429 42.8227C39.8784 41.3711 41.6929 39.5565 43.2655 37.2581C47.1365 32.0565 49.6768 25.5243 50.1607 19.5968C50.5236 15 49.6768 11.0081 47.6203 7.86294ZM10.8461 35.2017C8.54769 35.2017 6.61221 33.2662 6.61221 30.9678C6.61221 28.6694 8.54769 26.7339 10.8461 26.7339C13.1445 26.7339 15.08 28.6694 15.08 30.9678C15.08 33.2662 13.1445 35.2017 10.8461 35.2017ZM15.4429 23.9517C13.1445 23.9517 11.209 22.0162 11.209 19.7178C11.209 17.4194 13.1445 15.4839 15.4429 15.4839C17.7413 15.4839 19.6767 17.4194 19.6767 19.7178C19.6767 22.0162 17.8622 23.9517 15.4429 23.9517ZM23.9106 15.4839C21.6122 15.4839 19.6767 13.5484 19.6767 11.25C19.6767 8.95165 21.6122 7.01616 23.9106 7.01616C26.209 7.01616 28.1445 8.95165 28.1445 11.25C28.1445 13.5484 26.33 15.4839 23.9106 15.4839ZM37.0961 14.5162C34.7977 14.5162 32.8622 12.5807 32.8622 10.2823C32.8622 7.98391 34.7977 6.04842 37.0961 6.04842C39.3945 6.04842 41.33 7.98391 41.33 10.2823C41.33 12.5807 39.3945 14.5162 37.0961 14.5162Z" fill="#00A4B5"/>
<path d="M11.9349 56.9758C6.00746 56.9758 2.01552 50.3226 0.926813 46.0887C-0.403833 40.5242 -0.282865 34.1129 1.16875 28.1855C2.62036 21.6532 5.40262 15.8468 9.03166 11.129C14.8381 3.87097 22.4591 0 31.2897 0C32.8623 0 34.6768 0.120969 36.3704 0.362905C41.693 1.20968 45.8059 3.62903 48.3462 7.5C50.5236 10.7661 51.3704 14.879 51.0075 19.7177C50.5236 25.8871 47.9833 32.4194 43.9914 37.8629C42.5397 40.0403 40.6043 41.9758 38.5478 43.5484L35.0397 46.2097L37.3381 42.4597C37.5801 42.0968 37.822 41.6129 37.943 41.371L38.0639 41.129C38.5478 40.2823 38.7897 38.8307 39.2736 36.8952L39.3946 36.2903L39.7575 36.1694C40.4833 35.9274 42.7817 34.5968 44.2333 30.7258C45.201 27.9436 44.4752 25.8871 43.7494 23.9516C43.1446 22.379 43.0236 21.7742 43.3865 20.9274L43.5075 20.8065C43.9914 20.0806 43.8704 19.4758 43.6285 19.1129C43.3865 18.75 43.0236 18.5081 42.6607 18.3871H42.5397C42.2978 18.2661 42.1768 18.2661 42.0559 18.2661C40.2414 18.2661 38.4268 18.9919 36.7333 20.2016C34.6768 21.6532 33.2252 23.5887 32.2575 25.8871C31.2897 28.1855 31.0478 30.4839 31.5317 32.2984C31.6526 32.4194 31.6526 32.6613 31.6526 32.7823C31.6526 32.9032 31.6526 32.9032 31.6526 33.0242L31.8946 33.3871L31.6526 33.5081C30.6849 35.2016 29.7172 36.6532 29.4752 37.621C28.9914 38.7097 27.9026 41.9758 26.572 45.9677L26.3301 46.6936L25.6043 46.4516C25.2414 46.3307 24.8784 46.3307 24.6365 46.3307C23.5478 46.3307 23.1849 46.8145 21.2494 49.7178C20.6446 50.8065 19.9188 52.0161 18.951 53.2258C16.2897 56.4919 13.3865 56.9758 11.9349 56.9758ZM31.2897 1.69355C23.0639 1.69355 15.8059 5.32258 10.4833 12.0968C6.97521 16.5726 4.31391 22.2581 2.8623 28.4274C1.53165 34.2339 1.41069 40.2823 2.62036 45.6048C3.58811 49.5968 7.21714 55.2823 11.9349 55.2823C13.1446 55.2823 15.322 54.9194 17.3784 52.2581C18.3462 51.1694 18.951 50.0807 19.5559 48.9919C21.3704 46.3307 22.3381 44.7581 24.3946 44.7581C24.6365 44.7581 24.7575 44.7581 24.9994 44.7581C26.2091 41.0081 27.2978 37.9839 27.6607 37.0161C28.0236 36.0484 28.8704 34.5968 29.8381 33.0242C29.8381 32.9032 29.8381 32.9032 29.8381 32.7823V32.6613C29.2333 30.3629 29.4752 27.8226 30.5639 25.0403C31.5317 22.5 33.2252 20.2016 35.5236 18.629C37.4591 17.1774 39.7575 16.4516 41.8139 16.4516C42.2978 16.4516 42.5397 16.5726 42.9027 16.6936L43.2656 16.8145C43.8704 17.1774 44.4752 17.6613 44.8381 18.1452C45.5639 19.3548 45.443 20.6855 44.7172 21.7742C44.5962 21.8952 44.7172 22.1371 45.0801 23.3468C45.6849 24.9194 46.7736 27.7016 45.5639 31.3307C44.1123 35.3226 41.8139 36.8952 40.4833 37.621C40.2414 38.4678 40.1204 39.3145 39.8785 39.9194C40.7252 38.9516 41.572 37.9839 42.2978 37.0161C46.0478 31.9355 48.5881 25.5242 49.072 19.7177C49.4349 15.2419 48.5881 11.4919 46.6527 8.46774C44.3543 5.08065 40.7252 2.90323 35.8865 2.05645C34.5559 1.81452 32.8623 1.69355 31.2897 1.69355ZM10.8462 36.1694C8.06392 36.1694 5.76553 33.871 5.76553 31.0887C5.76553 28.3065 8.06392 26.0081 10.8462 26.0081C13.6284 26.0081 15.9268 28.3065 15.9268 31.0887C15.9268 33.871 13.6284 36.1694 10.8462 36.1694ZM10.8462 27.7016C9.03166 27.7016 7.45908 29.2742 7.45908 31.0887C7.45908 32.9032 9.03166 34.4758 10.8462 34.4758C12.6607 34.4758 14.2333 32.9032 14.2333 31.0887C14.2333 29.2742 12.6607 27.7016 10.8462 27.7016ZM15.443 24.9194C12.6607 24.9194 10.3623 22.621 10.3623 19.8387C10.3623 17.0565 12.6607 14.7581 15.443 14.7581C18.2252 14.7581 20.5236 17.0565 20.5236 19.8387C20.5236 22.621 18.3462 24.9194 15.443 24.9194ZM15.443 16.4516C13.6284 16.4516 12.0559 18.0242 12.0559 19.8387C12.0559 21.6532 13.6284 23.2258 15.443 23.2258C17.3784 23.2258 18.8301 21.7742 18.8301 19.8387C18.8301 17.9032 17.2575 16.4516 15.443 16.4516ZM23.9107 16.4516C21.1284 16.4516 18.8301 14.1532 18.8301 11.371C18.8301 8.58871 21.1284 6.29032 23.9107 6.29032C26.693 6.29032 28.9914 8.58871 28.9914 11.371C28.9914 14.1532 26.8139 16.4516 23.9107 16.4516ZM23.9107 7.98387C22.0962 7.98387 20.5236 9.55645 20.5236 11.371C20.5236 13.1855 22.0962 14.7581 23.9107 14.7581C25.8462 14.7581 27.2978 13.3065 27.2978 11.371C27.2978 9.43549 25.7252 7.98387 23.9107 7.98387ZM37.0962 15.4839C34.3139 15.4839 32.0155 13.1855 32.0155 10.4032C32.0155 7.62097 34.3139 5.32258 37.0962 5.32258C39.8785 5.32258 42.1768 7.62097 42.1768 10.4032C42.1768 13.1855 39.8785 15.4839 37.0962 15.4839ZM37.0962 7.01613C35.2817 7.01613 33.7091 8.58871 33.7091 10.4032C33.7091 12.2177 35.2817 13.7903 37.0962 13.7903C38.9107 13.7903 40.4833 12.2177 40.4833 10.4032C40.4833 8.58871 38.9107 7.01613 37.0962 7.01613Z" fill="#003333"/>
<path d="M38.1848 36.0484L32.6203 33.75L32.4993 33.6291C32.1364 33.2662 32.0155 32.7823 31.8945 32.4194V32.2984C31.4106 30.6049 31.5316 28.4274 32.4993 26.0081C34.5558 20.9274 38.7896 18.5081 41.9348 18.5081H42.4186L42.6606 18.75C42.9025 18.871 43.0235 18.9919 43.0235 19.2339C43.2654 19.5968 43.2654 20.0806 42.9025 20.5645C42.2977 21.5323 42.5396 22.379 43.1445 23.9516V24.0726C43.7493 25.6452 44.5961 27.7016 43.6283 30.3629C42.2977 33.992 40.3622 35.3226 39.2735 35.6855C39.1525 35.8065 38.9106 35.8065 38.7896 35.8065C38.6687 35.8065 38.6687 35.8065 38.5477 35.8065L38.1848 36.0484ZM33.709 32.4194L38.3058 34.2339C38.3058 34.2339 38.3058 34.2339 38.4267 34.2339C37.9429 34.1129 37.459 33.871 37.217 33.5081C36.9751 33.0242 36.9751 32.5404 36.9751 32.2984C36.9751 31.6936 37.459 31.3307 37.5799 31.0887L37.7009 30.9678C38.7896 30.242 38.9106 29.3952 38.9106 29.3952C38.9106 28.6694 39.3945 28.1855 40.1203 27.9436H40.4832H40.7251C41.088 27.9436 41.4509 27.9436 41.6928 28.1855C41.9348 28.4274 42.1767 28.6694 42.2977 29.0323C42.6606 27.3387 42.0557 26.1291 41.5719 24.7984L42.2977 24.3145L41.4509 24.6774C40.967 23.3468 40.3622 22.0161 40.967 20.5645C38.5477 20.9274 35.5235 22.9839 33.9509 26.8549C33.1042 28.9113 32.9832 30.6049 33.3461 31.9355V32.0565C33.588 32.0565 33.588 32.2984 33.709 32.4194ZM38.5477 32.2984C38.5477 32.4194 38.5477 32.4194 38.5477 32.2984C38.5477 32.4194 38.6687 32.4194 38.6687 32.2984C40.3622 31.2097 40.6041 29.5162 40.6041 29.3952H40.4832C40.4832 30.121 39.9993 31.3307 38.5477 32.2984Z" fill="#003333"/>
<path d="M26.209 60C25.8461 60 25.4832 59.879 25.1203 59.758C23.6686 59.2742 22.8219 57.7016 23.4267 56.129L23.6686 55.5242C27.0558 45.2419 29.1122 39.0726 29.7171 37.7419C30.2009 36.7742 31.0477 35.0806 32.0155 33.75L32.3784 33.1451L38.7897 35.6855L38.5477 36.7742C38.1848 38.2258 37.8219 39.7984 37.3381 40.8871C36.4913 42.9435 29.4751 57.4596 28.9913 58.3064C28.3864 59.3951 27.4187 60 26.209 60ZM31.2896 38.4677C30.8058 39.7984 28.6283 46.0887 25.3622 56.129L25.1203 56.7338C24.8783 57.3387 25.1203 57.9435 25.8461 58.1855C26.4509 58.4274 27.1767 58.1855 27.4187 57.7016C27.7816 57.0967 34.9187 42.7016 35.7655 40.5242C36.1284 39.6774 36.4913 38.3468 36.7332 37.0161L32.9832 35.4435C32.2574 36.4113 31.6526 37.6209 31.2896 38.4677Z" fill="#003333"/>
</svg>

<?xml version="1.0" encoding="utf-8"?>
<!-- Generator: Adobe Illustrator 23.0.1, SVG Export Plug-In . SVG Version: 6.00 Build 0)  -->
<svg version="1.1" id="Слой_1" xmlns="http://www.w3.org/2000/svg" xmlns:xlink="http://www.w3.org/1999/xlink" x="0px" y="0px"
	 viewBox="0 0 51.1 60" style="enable-background:new 0 0 51.1 60;" xml:space="preserve">
<style type="text/css">
	.st0{fill:#00A4B5;}
	.st1{fill:#003333;}
</style>
<g>
	<path class="st0" d="M47.6,7.9c-2.4-3.6-6.3-5.9-11.4-6.8c-1.7-0.2-3.4-0.4-5-0.4c-8.5,0-16,3.8-21.5,10.8
		C6.1,16.1,3.5,21.9,2,28.2c-1.5,6-1.5,12.3-0.2,17.5C2.9,50,6.6,56,11.9,56c1.6,0,4-0.6,6.2-3.4c1-1.2,1.7-2.3,2.3-3.4
		c1.8-2.8,2.5-3.8,4.1-3.8c0.4,0,0.7,0,1.2,0.1c1.2-3.8,2.4-7.3,2.9-8.3c0.4-1,1.2-2.4,2.3-4.2c-0.1-0.2-0.1-0.5-0.2-0.7
		c-0.6-2.1-0.4-4.5,0.7-7c1-2.5,2.7-4.6,4.7-6c1.8-1.3,3.9-2.1,5.8-2.1c0.4,0,0.6,0.1,1,0.2c0.5,0.2,1,0.6,1.3,1.1
		c0.5,0.8,0.5,1.8-0.1,2.7c-0.2,0.5-0.2,0.7,0.4,2.3c0.7,1.8,1.6,4.2,0.5,7.4c-1.3,3.6-3.5,5.3-5,5.9c-0.5,2.1-0.8,3.6-1.3,4.6
		c-0.1,0.2-0.4,0.8-0.7,1.5c1.9-1.5,3.8-3.3,5.3-5.6c3.9-5.2,6.4-11.7,6.9-17.7C50.5,15,49.7,11,47.6,7.9z M10.8,35.2
		c-2.3,0-4.2-1.9-4.2-4.2s1.9-4.2,4.2-4.2c2.3,0,4.2,1.9,4.2,4.2S13.1,35.2,10.8,35.2z M15.4,24c-2.3,0-4.2-1.9-4.2-4.2
		s1.9-4.2,4.2-4.2s4.2,1.9,4.2,4.2S17.9,24,15.4,24z M23.9,15.5c-2.3,0-4.2-1.9-4.2-4.2C19.7,9,21.6,7,23.9,7s4.2,1.9,4.2,4.2
		C28.1,13.5,26.3,15.5,23.9,15.5z M37.1,14.5c-2.3,0-4.2-1.9-4.2-4.2C32.9,8,34.8,6,37.1,6s4.2,1.9,4.2,4.2
		C41.3,12.6,39.4,14.5,37.1,14.5z"/>
	<path class="st1" d="M11.9,57C6,57,2,50.3,0.9,46.1c-1.3-5.6-1.2-12,0.2-17.9C2.6,21.7,5.4,15.8,9,11.1C14.8,3.9,22.5,0,31.3,0
		c1.6,0,3.4,0.1,5.1,0.4c5.3,0.8,9.4,3.3,12,7.1c2.2,3.3,3,7.4,2.7,12.2c-0.5,6.2-3,12.7-7,18.1c-1.5,2.2-3.4,4.1-5.4,5.7L35,46.2
		l2.3-3.8c0.2-0.4,0.5-0.8,0.6-1.1l0.1-0.2c0.5-0.8,0.7-2.3,1.2-4.2l0.1-0.6l0.4-0.1c0.7-0.2,3-1.6,4.5-5.4c1-2.8,0.2-4.8-0.5-6.8
		c-0.6-1.6-0.7-2.2-0.4-3l0.1-0.1c0.5-0.7,0.4-1.3,0.1-1.7c-0.2-0.4-0.6-0.6-1-0.7h-0.1c-0.2-0.1-0.4-0.1-0.5-0.1
		c-1.8,0-3.6,0.7-5.3,1.9c-2.1,1.5-3.5,3.4-4.5,5.7c-1,2.3-1.2,4.6-0.7,6.4c0.1,0.1,0.1,0.4,0.1,0.5c0,0.1,0,0.1,0,0.2l0.2,0.4
		l-0.2,0.1c-1,1.7-1.9,3.1-2.2,4.1C29,38.7,27.9,42,26.6,46l-0.2,0.7l-0.7-0.2c-0.4-0.1-0.7-0.1-1-0.1c-1.1,0-1.5,0.5-3.4,3.4
		c-0.6,1.1-1.3,2.3-2.3,3.5C16.3,56.5,13.4,57,11.9,57z M31.3,1.7c-8.2,0-15.5,3.6-20.8,10.4C7,16.6,4.3,22.3,2.9,28.4
		c-1.3,5.8-1.5,11.9-0.2,17.2c1,4,4.6,9.7,9.3,9.7c1.2,0,3.4-0.4,5.4-3c1-1.1,1.6-2.2,2.2-3.3c1.8-2.7,2.8-4.2,4.8-4.2
		c0.2,0,0.4,0,0.6,0c1.2-3.8,2.3-6.8,2.7-7.7c0.4-1,1.2-2.4,2.2-4c0-0.1,0-0.1,0-0.2v-0.1c-0.6-2.3-0.4-4.8,0.7-7.6
		c1-2.5,2.7-4.8,5-6.4c1.9-1.5,4.2-2.2,6.3-2.2c0.5,0,0.7,0.1,1.1,0.2l0.4,0.1c0.6,0.4,1.2,0.8,1.6,1.3c0.7,1.2,0.6,2.5-0.1,3.6
		c-0.1,0.1,0,0.4,0.4,1.6c0.6,1.6,1.7,4.4,0.5,8c-1.5,4-3.8,5.6-5.1,6.3c-0.2,0.8-0.4,1.7-0.6,2.3c0.8-1,1.7-1.9,2.4-2.9
		c3.8-5.1,6.3-11.5,6.8-17.3c0.4-4.5-0.5-8.2-2.4-11.2c-2.3-3.4-5.9-5.6-10.8-6.4C34.6,1.8,32.9,1.7,31.3,1.7z M10.8,36.2
		c-2.8,0-5.1-2.3-5.1-5.1c0-2.8,2.3-5.1,5.1-5.1c2.8,0,5.1,2.3,5.1,5.1C15.9,33.9,13.6,36.2,10.8,36.2z M10.8,27.7
		c-1.8,0-3.4,1.6-3.4,3.4s1.6,3.4,3.4,3.4c1.8,0,3.4-1.6,3.4-3.4S12.7,27.7,10.8,27.7z M15.4,24.9c-2.8,0-5.1-2.3-5.1-5.1
		c0-2.8,2.3-5.1,5.1-5.1c2.8,0,5.1,2.3,5.1,5.1C20.5,22.6,18.3,24.9,15.4,24.9z M15.4,16.5c-1.8,0-3.4,1.6-3.4,3.4
		c0,1.8,1.6,3.4,3.4,3.4c1.9,0,3.4-1.5,3.4-3.4S17.3,16.5,15.4,16.5z M23.9,16.5c-2.8,0-5.1-2.3-5.1-5.1c0-2.8,2.3-5.1,5.1-5.1
		S29,8.6,29,11.4C29,14.2,26.8,16.5,23.9,16.5z M23.9,8c-1.8,0-3.4,1.6-3.4,3.4c0,1.8,1.6,3.4,3.4,3.4c1.9,0,3.4-1.5,3.4-3.4
		C27.3,9.4,25.7,8,23.9,8z M37.1,15.5c-2.8,0-5.1-2.3-5.1-5.1c0-2.8,2.3-5.1,5.1-5.1c2.8,0,5.1,2.3,5.1,5.1
		C42.2,13.2,39.9,15.5,37.1,15.5z M37.1,7c-1.8,0-3.4,1.6-3.4,3.4c0,1.8,1.6,3.4,3.4,3.4c1.8,0,3.4-1.6,3.4-3.4
		C40.5,8.6,38.9,7,37.1,7z"/>
	<path class="st1" d="M38.2,36l-5.6-2.3l-0.1-0.1c-0.4-0.4-0.5-0.8-0.6-1.2v-0.1c-0.5-1.7-0.4-3.9,0.6-6.3c2.1-5.1,6.3-7.5,9.4-7.5
		h0.5l0.2,0.2c0.2,0.1,0.4,0.2,0.4,0.5c0.2,0.4,0.2,0.8-0.1,1.3c-0.6,1-0.4,1.8,0.2,3.4v0.1c0.6,1.6,1.5,3.6,0.5,6.3
		c-1.3,3.6-3.3,5-4.4,5.3c-0.1,0.1-0.4,0.1-0.5,0.1c-0.1,0-0.1,0-0.2,0L38.2,36z M33.7,32.4l4.6,1.8c0,0,0,0,0.1,0
		c-0.5-0.1-1-0.4-1.2-0.7C37,33,37,32.5,37,32.3c0-0.6,0.5-1,0.6-1.2l0.1-0.1c1.1-0.7,1.2-1.6,1.2-1.6c0-0.7,0.5-1.2,1.2-1.5h0.4
		h0.2c0.4,0,0.7,0,1,0.2c0.2,0.2,0.5,0.5,0.6,0.8c0.4-1.7-0.2-2.9-0.7-4.2l0.7-0.5l-0.8,0.4C41,23.3,40.4,22,41,20.6
		c-2.4,0.4-5.4,2.4-7,6.3c-0.8,2.1-1,3.8-0.6,5.1v0.1C33.6,32.1,33.6,32.3,33.7,32.4z M38.5,32.3C38.5,32.4,38.5,32.4,38.5,32.3
		c0,0.1,0.1,0.1,0.1,0c1.7-1.1,1.9-2.8,1.9-2.9h-0.1C40.5,30.1,40,31.3,38.5,32.3z"/>
	<path class="st1" d="M26.2,60c-0.4,0-0.7-0.1-1.1-0.2c-1.5-0.5-2.3-2.1-1.7-3.6l0.2-0.6c3.4-10.3,5.4-16.5,6-17.8
		c0.5-1,1.3-2.7,2.3-4l0.4-0.6l6.4,2.5l-0.2,1.1c-0.4,1.5-0.7,3-1.2,4.1c-0.8,2.1-7.9,16.6-8.3,17.4C28.4,59.4,27.4,60,26.2,60z
		 M31.3,38.5c-0.5,1.3-2.7,7.6-5.9,17.7l-0.2,0.6c-0.2,0.6,0,1.2,0.7,1.5c0.6,0.2,1.3,0,1.6-0.5c0.4-0.6,7.5-15,8.3-17.2
		c0.4-0.8,0.7-2.2,1-3.5L33,35.4C32.3,36.4,31.7,37.6,31.3,38.5z"/>
</g>
</svg>
